svgs/regular/money-bill-simple-wave.svg

<svg xmlns="http://www.w3.org/2000/svg" viewBox="0 0 576 512"><!--! Font Awesome Pro 6.1.1 by @fontawesome - https://fontawesome.com License - https://fontawesome.com/license (Commercial License) Copyright 2022 Fonticons, Inc. --><path d="M208 256C208 202.1 243.8 160 288 160C332.2 160 368 202.1 368 256C368 309 332.2 352 288 352C243.8 352 208 309 208 256zM0 421.5V113C0 88.79 25.38 72.73 48.35 79.04C128.2 100.1 208.1 80.61 288 60.25C374.9 38.1 461.8 15.95 548.7 48.26C565.8 54.6 576 71.96 576 90.5V398.1C576 423.2 550.6 439.3 527.7 432.1C447.8 411 367.9 431.4 288 451.7C201.1 473.9 114.2 496 27.29 463.7C10.21 457.4 0 440 0 421.5V421.5zM279.2 404.4C352.9 385.6 439.7 363.3 528 383.6V91.81C461.8 68.73 393.6 82.96 310.3 104.1C305.9 105.2 301.4 106.4 296.8 107.6C223.1 126.4 136.3 148.7 48 128.4V420.2C114.2 443.3 182.4 429 265.7 407.9C270.1 406.8 274.6 405.6 279.2 404.4V404.4z"/></svg>

<svg xmlns="http://www.w3.org/2000/svg" viewBox="0 0 576 512"><!--! Font Awesome Pro 6.4.2 by @fontawesome - https://fontawesome.com License - https://fontawesome.com/license (Commercial License) Copyright 2023 Fonticons, Inc. --><path d="M265.7 407.9c4.5-1.1 9-2.3 13.5-3.4l0 0c73.7-18.9 160.5-41.1 248.8-20.9V91.8C461.8 68.7 393.6 83 310.3 104.1c-4.5 1.1-9 2.3-13.5 3.5l0 0C223.1 126.4 136.3 148.7 48 128.4V420.2c66.2 23.1 134.4 8.9 217.7-12.3zM0 421.5V113C0 88.8 25.4 72.7 48.4 79C128.2 101 208.1 80.6 288 60.3c86.9-22.1 173.8-44.3 260.7-12C565.8 54.6 576 72 576 90.5V399c0 24.3-25.4 40.3-48.3 34C447.8 411 367.9 431.4 288 451.7c-86.9 22.1-173.8 44.3-260.7 12C10.2 457.4 0 440 0 421.5zM288 352c-44.2 0-80-43-80-96s35.8-96 80-96s80 43 80 96s-35.8 96-80 96z"/></svg>
